X:536
T: Jinggang xiangcha jibeijing
N: C1954
O: China,Jiangxi Suichuan
S: IV, 192]
R: Xiaodiao, Chage]
M: 2/4
L: 1/16
K: C
G2E2G2GA | d2edc2A2 | d2ddcdeg | d8 |
G2E2G2GA | dedcAcA2 | G2AcAGE2 | D8 |
G2E2G2GA | d2edc2A2 | d2edcdAc | d8 |
e2e2e2Ac | d2d2d2cA | G2AcAGE2 | D8

@@@ Tune index: 7091
